X: 29
T:Sporting Paddy
M:C|
S:Session
R:reel
K:Ador
EA~A2 GABG|EA~A2 GEDG|EA~A2 GA (3B^cd|edge dBAG|
EA~A2 EA~A2|EA~A2 GEDG|EA~A2 GA (3B^cd|edge d2ef||
ge~e2 gede|ge~e2 a2ba|ge~e2 gedg|efge d2ef|
ge~e2 gede|ge~e2 a2ga|bgaf gedg|efge dBAG||

